icons/filter-16.svg

<svg width="16" height="16" viewBox="0 0 16 16" xmlns="http://www.w3.org/2000/svg">
  <path fill-rule="evenodd" clip-rule="evenodd" d="M0.75 3C0.335786 3 0 3.33579 0 3.75C0 4.16421 0.335786 4.5 0.75 4.5H15.25C15.6642 4.5 16 4.16421 16 3.75C16 3.33579 15.6642 3 15.25 3H0.75ZM3 7.75C3 7.33579 3.33579 7 3.75 7H12.25C12.6642 7 13 7.33579 13 7.75C13 8.16421 12.6642 8.5 12.25 8.5H3.75C3.33579 8.5 3 8.16421 3 7.75ZM6 11.75C6 11.3358 6.33579 11 6.75 11H9.25C9.66421 11 10 11.3358 10 11.75C10 12.1642 9.66421 12.5 9.25 12.5H6.75C6.33579 12.5 6 12.1642 6 11.75Z"/>
</svg>

<svg xmlns="http://www.w3.org/2000/svg" width="16" height="16" viewBox="0 0 16 16"><path fill-rule="evenodd" d="M.75 3a.75.75 0 000 1.5h14.5a.75.75 0 000-1.5H.75zM3 7.75A.75.75 0 013.75 7h8.5a.75.75 0 010 1.5h-8.5A.75.75 0 013 7.75zm3 4a.75.75 0 01.75-.75h2.5a.75.75 0 010 1.5h-2.5a.75.75 0 01-.75-.75z"/></svg>
